brandFactory_export/2.Regular/Cascos auriculares_2Regular.svg

<?xml version="1.0" encoding="UTF-8"?>
<svg width="24px" height="24px" viewBox="0 0 24 24" version="1.1" xmlns="http://www.w3.org/2000/svg" xmlns:xlink="http://www.w3.org/1999/xlink">
    <title>2.Regular/Cascos auriculares_2Regular</title>
    <g id="Symbols" stroke="none" stroke-width="1" fill="none" fill-rule="evenodd">
        <g id="2.Regular/Cascos-auriculares_2Regular" fill="#5CB615" fill-rule="nonzero">
            <path d="M19.0689076,19.3915966 L18.7294118,19.3915966 C18.6689076,19.3915966 18.6084034,19.3915966 18.5478992,19.3815126 C18.4907563,19.3613445 18.4302521,19.3512605 18.3697479,19.3512605 C17.8789916,19.210084 17.3781513,18.594958 17.3781513,15.5966387 C17.3781513,11.8319328 18.1613445,11.8151261 18.8134454,11.7915966 L18.9445378,11.7915966 L19.0756303,11.8016807 C20.3798319,11.8554622 22.1243697,12.312605 22.1243697,15.5966387 C22.1176471,18.8672269 20.3731092,19.3277311 19.0689076,19.3915966 M4.54453782,11.8016807 C4.56470588,11.8016807 4.66554622,11.7915966 4.68571429,11.7915966 L4.89411765,11.7915966 C5.46554622,11.8117647 6.2487395,11.8319328 6.2487395,15.5966387 C6.2487395,19.3512605 5.46554622,19.3680672 4.81344538,19.3915966 L4.54117647,19.3915966 C3.24033613,19.3277311 1.50588235,18.8672269 1.50588235,15.5966387 C1.50588235,12.312605 3.24033613,11.8521008 4.54453782,11.8016807 M21.2638655,10.8 C21.1563025,3.83529412 17.7781513,0 11.687395,0 C5.56638655,0 2.17478992,3.88907563 2.11764706,10.9512605 C0.742857143,11.7915966 0,13.3579832 0,15.5966387 C0,18.8907563 1.59327731,20.7831933 4.48403361,20.9142857 L4.81680672,20.9243697 L4.94789916,20.9243697 C7.27731092,20.8436975 7.75798319,18.7361345 7.75798319,15.5966387 C7.75798319,12.4470588 7.27731092,10.3394958 4.98823529,10.2588235 C4.86722689,10.2487395 4.74621849,10.2487395 4.62857143,10.2588235 C4.56806723,10.2588235 4.50756303,10.2588235 4.48739496,10.2689076 C4.20168067,10.2823529 3.91596639,10.3159664 3.63361345,10.3731092 C3.85546218,4.51092437 6.55462185,1.53613445 11.6907563,1.53613445 C16.8268908,1.53613445 19.5226891,4.50084034 19.7546218,10.3428571 C19.5630252,10.3226891 19.3848739,10.2823529 19.1831933,10.2722689 C19.1226891,10.2621849 19.0655462,10.2621849 19.0218487,10.2621849 C18.907563,10.2521008 18.7932773,10.2521008 18.6823529,10.2621849 C16.3462185,10.3428571 15.8756303,12.4504202 15.8756303,15.6 C15.8756303,17.6537815 16.087395,19.2605042 16.887395,20.1512605 C15.8453782,20.7327731 14.5915966,21.112605 13.1260504,21.307563 C12.9445378,20.6218487 12.4033613,20.2117647 11.5798319,20.1915966 C10.5277311,20.1613445 9.87563025,20.7563025 9.84537815,21.8588235 C9.82521008,22.389916 9.95630252,22.8201681 10.2352941,23.1260504 C10.5176471,23.4319328 10.9378151,23.6168067 11.4689076,23.6268908 L11.5495798,23.6268908 C12.0403361,23.6268908 12.4436975,23.4857143 12.7327731,23.2067227 C12.8235294,23.1159664 12.8840336,22.994958 12.9445378,22.8705882 C15.2,22.6352941 17.0789916,21.9731092 18.5310924,20.907563 C18.5815126,20.9210084 18.6117647,20.9277311 18.6621849,20.9277311 L18.8134454,20.9277311 L19.1428571,20.9176471 C22.0302521,20.7831933 23.6268908,18.8941176 23.6268908,15.6 C23.6235294,13.2235294 22.7798319,11.5865546 21.2638655,10.8" id="Cascos-auriculares_2Regular"></path>
        </g>
    </g>
</svg>

<svg width="24" height="24" viewBox="0 0 24 24" xmlns="http://www.w3.org/2000/svg"><path d="M19.069 19.392h-.34c-.06 0-.12 0-.181-.01a.536.536 0 00-.178-.03c-.491-.142-.992-.757-.992-3.755 0-3.765.783-3.782 1.435-3.805h.132l.13.01c1.305.053 3.05.51 3.05 3.795-.007 3.27-1.752 3.73-3.056 3.795m-14.524-7.59c.02 0 .12-.01.14-.01h.21c.57.02 1.354.04 1.354 3.805 0 3.754-.783 3.771-1.436 3.795h-.272c-1.3-.064-3.035-.525-3.035-3.795 0-3.284 1.734-3.745 3.039-3.795M21.264 10.8C21.156 3.835 17.778 0 11.687 0c-6.12 0-9.512 3.89-9.57 10.951C.744 11.791 0 13.358 0 15.597c0 3.294 1.593 5.186 4.484 5.317l.333.01h.13c2.33-.08 2.811-2.188 2.811-5.327 0-3.15-.48-5.258-2.77-5.338a2.142 2.142 0 00-.36 0c-.06 0-.12 0-.14.01a5.64 5.64 0 00-.854.104c.221-5.862 2.92-8.837 8.057-8.837 5.136 0 7.832 2.965 8.064 8.807-.192-.02-.37-.06-.572-.07-.06-.01-.117-.01-.161-.01a1.909 1.909 0 00-.34 0c-2.336.08-2.806 2.187-2.806 5.337 0 2.054.211 3.66 1.011 4.551-1.042.582-2.295.962-3.76 1.157-.182-.686-.724-1.096-1.547-1.116-1.052-.03-1.704.564-1.735 1.667-.02.53.111.961.39 1.267.283.306.703.49 1.234.5h.08c.491 0 .895-.14 1.184-.42.09-.09.151-.211.212-.335 2.255-.236 4.134-.898 5.586-1.963.05.013.08.02.131.02h.151l.33-.01c2.887-.135 4.484-2.024 4.484-5.318-.003-2.376-.847-4.013-2.363-4.8" fill="#5CB615" fill-rule="nonzero"/></svg>
